X:113
T:St. Bride's Bells
M:2/4
L:1/8
B:Thompson's Compleat Collection of 200 Favourite Country Dances, vol. 1 (London, 1757)
Z:Transcribed and edited by Fynnian Titford-Mock, 2007
Z:abc's:AK/Fiddler's Companion
K:A
a|gfed|cBAa|gfed|c2 Aa|gfed|cBAa|(g/a/b) B^d|e2 E:|
|:a|fdBg|ecAa|fdBg|e2 Aa|fdBg|ecAc|dfBg|a2 A:|

